X:1
T:Vaqueira
C:Tradicional
L:1/8
Q:3/8=90
M:6/8
I:linebreak $
K:G
V:1 treble 
V:1
 G>GG GGG | G2 F- F3 | G>GG GGG | c2 B- B3 | ccc ccB | d2 c ccB | AGG G F2- | F6 |$ G>GG GGG | %9
 G2 F F3 | GGG AGG | G G2- G3- | G3 =FGG | GAA GGG | G3 =FGG | GAA AGG | G6 | %17
